X:1
T:Don't Stop Believing (the last thing Tony Soprano Heard)
C:Journey
Z:Thrimlion
M:4/4
L:1/8
Q:1/4=112
K:E

z8 |E,4 E, F, G, |B,4 B, C D |C4 C D E |
A,4 A, D E2 | E,4 E, F, G, | B,4 z C D | G,4 G, E G, |
A,4 A, D E2 | E,4 E, F, G, | B,4 B, C D C | C4 C D E A, |
A,4 A, D E2 | E,4 E, F, G, | B,4 z C D | G,4 G, E G, |
A,4 A, D E2 | E,4 E, F, G, | B,4 B, C D C | C4 C D E A, |
A,4 A, D E2 | E,4 E, F, G, | B,4 z C D | G,4 G, E G, |
A,4 A, D E2 | E,4 E, F, G, | B,4 B, C D C | C4 C D E A, |
A,4 A, D E2 | E,4 E, F, G, | B,4 z C D | G,4 G, E G, |
A,4 A, D E2 | E,4 E, F, G, | B,4 B, C D C | C4 C D E A, |
A,4 A, D E2 | E,4 E, F, G, | B,4 z C D | G,4 G, E G, |
A,4 A, D E2 | A, A, A, A, A, A, A, A, | A, A A, E A E G E | E, E, E, E, E, E, E,E, | E, E DB, E B, D E | A, A, A, A, A, A, A, A, | A, A E A E G E A, | E,2 E, E, E, E, E, E, | E, E D B, E B, D E | A, A, A, A, A, A, A, A, | A, A E A, A A, E A | E, E, E, E, E, E, E, E, |
E, E D E B, D E B, | A, A, A, A, A, A, A, A, | A, A E C A A, E A | B,3 E,4 E, |
B,2 E, A,4 A, | E,4 E, F, G, B, | B,4 B, C D | C4 C D E |
A,4 A, D E2 | E,4 E, F, G, | B,4 B, C D C | C4 C D E A, |
A,4 A, D E2 | E,4 E, F, G, | B,4 z C D | G,4 G, E G, |
A,4 A, D E2 | E,4 E, F, G, | B,4 B, C D C | C4 C D E A, |
A,4 A, D E2 | E,4 E, F, G, | B,4 z C D | G,4 G, E G, |
A,4 A, D E2 | A, A, A, A, A, A, A, A, | A, A A, E A E G E | E, E, E, E, E, E, E, E, | E, E D B, E B, D E | A, A, A, A, A, A, A, A, | A, A E A E G E A, | E,2 E, E, E, E, E, E, | E, E D B, E B, D E | A, A, A, A, A, A, A, A, | A, A E A, A A, E A | E, E, E, E, E, E, E, E, |
E, E D E B, D E B, | A, A, A, A, A, A, A, A, | A, A E C A A, E A | B,3 E,4 E, |
B,2 E, A,4 A, | E,4 E, F, G, B, | B,4 B, C D | C4 C D E |
A,4 A, D E2 | E,4 E, F, G, | B,4 B, C D C | C4 C D E A, |
A,4 A, D E2 | E,4 E, F, G, | B,4 z C D | G,4 G, E G, |
A,4 A, D E2 | E,4 E, F, G, | B,4 B, C D C | C4 C D E A, |
A,4 A, D E2 | E,4 E, F, G, | B,4 z C D | G,4 G, E G, |
A,4 A, D E2 | E,4 E, F, G, | B,4 B, C D C | C4 C D E A, |
A,4 A, D E2 | E,4 E, F, G, | B,4 z C D | G,4 G, E G, |
A,4 A, D E2 |
